X: 200
T: Sligo Creek
C:Danny Noveck c1988
R:reel
M:C|
L:1/8
K:Bm
de| "Bm"f2ef dB~B2| f2ef df~f2| "A"a2ed cAAF| EFAB "F#m"c3e|
"Bm"f2ef dB~B2| f2ef def^g | "A"a2ed cAec| ABcA "Bm"B2 :|
|: BA| "G"GB~B2 Bcde| "D"f2ec defd| "A"eA A/A/A cAFA| EFAB "F#m"c2BA|
"G"GB~B2 Bcde| "D"f2ec defd| "A"ea a/a/a faec| ABcA "Bm"B2 :|
